!!!SOCIAL_FUNCTION:	songs connected with legends
!!!PDT:	1929
!!!OTL: No_21_Feather_Meal_Give_Me_to_Drink.krn
!!!REG: Southwest
!!!LANG: Non-Tone
!!!LING_GROUP: Uto-Aztecan
**kern
*staff1
=1-
*clefF4
*k[b-e-a-d-g-c-]
*M2/4
4E-\
8.B-\L
16G-\Jk
=2
4B-\
4F\
=3
12G-\L
12F\
12E-\J
12E-\L
12E-\
12E-\J
=4
2E-\
=5
4G-\
(8.B-\L
16G-\Jk)
=6
4B-\
4F\
=7
12G-\L
12F\
12E-\J
12E-\L
12E-\
12E-\J
=8
2E-\
=9
4.F\
8E-\
=10
12F\L
12E-\
12E-\J
8.E-\L
16F\Jk
=11||
*M3/4
12F\L
12E-\
12E-\J
8.E-\L
16E-\Jk
4E-\
=12||
*M2/4
2E-\
=13
4.F\
8E-\
=14
12F\L
12E-\
12E-\J
8.E-\L
16F\Jk
=15||
*M3/4
12F\L
12E-\
12E-\J
8.E-\L
16E-\Jk
4E-\
=16
2.E-\
==
*-
